;FLAVOR:UltiGCode
;TIME:278
;MATERIAL:1169
;MATERIAL2:0
;NOZZLE_DIAMETER:0.4
;MINX:96.125
;MINY:95.125
;MINZ:0.27
;MAXX:126.875
;MAXY:127.875
;MAXZ:3.87
;Generated with Cura_SteamEngine 4.8.0
M82 ;absolute extrusion mode
G0 F3000 Y50 ;avoid prime blob
G92 E0
G92 E0
G10
;LAYER_COUNT:13
;LAYER:0
M107
G0 F4500 X97.127 Y96.419 Z0.27
;TYPE:SKIRT
G11
G1 F2400 X97.528 Y96.033 E0.0526
G1 X97.979 Y95.708 E0.10513
G1 X98.473 Y95.451 E0.15775
G1 X98.998 Y95.268 E0.21029
G1 X99.545 Y95.162 E0.26295
G1 X100.221 Y95.127 E0.32691
G1 X100.33 Y95.125 E0.33722
G1 X122.349 Y95.125 E2.41801
G1 X123.047 Y95.135 E2.48398
G1 X123.601 Y95.183 E2.53653
G1 X124.143 Y95.31 E2.58914
G1 X124.661 Y95.513 E2.64171
G1 X125.144 Y95.788 E2.69423
G1 X125.583 Y96.13 E2.74682
G1 X125.969 Y96.531 E2.79942
G1 X126.294 Y96.983 E2.85203
G1 X126.55 Y97.477 E2.90461
G1 X126.733 Y98.002 E2.95715
G1 X126.838 Y98.549 E3.00978
G1 X126.873 Y99.221 E3.07337
G1 X126.875 Y99.33 E3.08368
G1 X126.875 Y104.868 E3.60702
G1 X126.862 Y105.682 E3.68395
G1 X126.807 Y106.963 E3.80512
G1 X126.78 Y107.448 E3.85102
G1 X126.705 Y110.196 E4.1108
G1 X126.707 Y112.897 E4.36605
G1 X126.863 Y117.145 E4.76775
G1 X126.875 Y117.596 E4.81039
G1 X126.875 Y123.318 E5.35112
G1 X126.865 Y124.044 E5.41973
G1 X126.817 Y124.599 E5.47237
G1 X126.691 Y125.141 E5.52496
G1 X126.488 Y125.659 E5.57753
G1 X126.213 Y126.142 E5.63006
G1 X125.871 Y126.582 E5.68272
G1 X125.471 Y126.968 E5.73525
G1 X125.019 Y127.292 E5.78781
G1 X124.525 Y127.549 E5.84043
G1 X124 Y127.732 E5.89297
G1 X123.453 Y127.838 E5.94562
G1 X122.779 Y127.873 E6.0094
G1 X122.67 Y127.875 E6.0197
G1 X100.657 Y127.875 E8.09993
G1 X99.959 Y127.866 E8.1659
G1 X99.405 Y127.819 E8.21844
G1 X98.863 Y127.693 E8.27102
G1 X98.344 Y127.49 E8.32369
G1 X97.86 Y127.216 E8.37625
G1 X97.421 Y126.875 E8.42878
G1 X97.034 Y126.474 E8.48144
G1 X96.709 Y126.023 E8.53397
G1 X96.452 Y125.529 E8.5866
G1 X96.269 Y125.004 E8.63914
G1 X96.162 Y124.458 E8.69171
G1 X96.126 Y123.763 E8.75748
G1 X96.125 Y99.622 E11.0388
G1 X96.134 Y98.957 E11.10165
G1 X96.182 Y98.402 E11.1543
G1 X96.308 Y97.86 E11.20688
G1 X96.511 Y97.342 E11.25946
G1 X96.786 Y96.858 E11.31206
G1 X97.127 Y96.419 E11.36459
G0 F4500 X97.471 Y96.563
G1 F2400 X97.867 Y96.21 E11.41472
G1 X98.311 Y95.92 E11.46484
G1 X98.794 Y95.7 E11.51499
G1 X99.305 Y95.555 E11.56519
G1 X99.91 Y95.485 E11.62274
G1 X100.33 Y95.475 E11.66245
G1 X122.343 Y95.475 E13.74267
G1 X123.041 Y95.485 E13.80864
G1 X123.57 Y95.533 E13.85884
G1 X124.085 Y95.659 E13.90894
G1 X124.576 Y95.861 E13.95911
G1 X125.031 Y96.135 E14.0093
G1 X125.439 Y96.474 E14.05943
G1 X125.792 Y96.87 E14.10956
G1 X126.082 Y97.315 E14.15976
G1 X126.301 Y97.798 E14.20988
G1 X126.446 Y98.309 E14.26007
G1 X126.515 Y98.911 E14.31733
G1 X126.525 Y99.33 E14.35694
G1 X126.525 Y104.863 E14.87981
G1 X126.512 Y105.667 E14.9558
G1 X126.458 Y106.944 E15.07658
G1 X126.429 Y107.455 E15.12495
G1 X126.355 Y110.187 E15.38322
G1 X126.357 Y112.882 E15.63789
G1 X126.513 Y117.155 E16.04196
G1 X126.525 Y117.596 E16.08365
G1 X126.525 Y123.314 E16.624
G1 X126.515 Y124.04 E16.69262
G1 X126.467 Y124.568 E16.74272
G1 X126.341 Y125.084 E16.79291
G1 X126.139 Y125.574 E16.843
G1 X125.866 Y126.029 E16.89314
G1 X125.528 Y126.438 E16.94328
G1 X125.131 Y126.791 E16.99348
G1 X124.687 Y127.081 E17.0436
G1 X124.204 Y127.3 E17.09371
G1 X123.693 Y127.445 E17.14391
G1 X123.089 Y127.515 E17.20137
G1 X122.67 Y127.525 E17.24098
G1 X100.662 Y127.525 E19.32073
G1 X99.964 Y127.516 E19.3867
G1 X99.435 Y127.469 E19.43689
G1 X98.919 Y127.343 E19.48708
G1 X98.428 Y127.142 E19.53722
G1 X97.973 Y126.869 E19.58736
G1 X97.564 Y126.531 E19.6375
G1 X97.211 Y126.135 E19.68763
G1 X96.921 Y125.691 E19.73775
G1 X96.701 Y125.208 E19.7879
G1 X96.555 Y124.697 E19.83813
G1 X96.485 Y124.086 E19.89624
G1 X96.475 Y123.658 E19.9367
G1 X96.475 Y99.626 E22.20773
G1 X96.484 Y98.961 E22.27057
G1 X96.531 Y98.433 E22.32067
G1 X96.657 Y97.917 E22.37086
G1 X96.859 Y97.426 E22.42103
G1 X97.132 Y96.972 E22.4711
G1 X97.471 Y96.563 E22.5213
G0 F4500 X97.814 Y96.715
G1 F2400 X98.204 Y96.397 E22.56885
G1 X98.64 Y96.144 E22.61649
G1 X99.11 Y95.964 E22.66405
G1 X99.603 Y95.86 E22.71166
G1 X100.241 Y95.826 E22.77204
G1 X122.338 Y95.825 E24.8602
G1 X123.036 Y95.835 E24.92617
G1 X123.538 Y95.882 E24.97382
G1 X124.025 Y96.008 E25.02136
G1 X124.487 Y96.21 E25.06901
G1 X124.911 Y96.481 E25.11656
G1 X125.287 Y96.817 E25.16421
G1 X125.605 Y97.207 E25.21176
G1 X125.857 Y97.643 E25.25935
G1 X126.037 Y98.113 E25.30691
G1 X126.14 Y98.606 E25.35451
G1 X126.174 Y99.241 E25.4146
G1 X126.175 Y104.858 E25.94541
G1 X126.165 Y105.563 E26.01204
G1 X126.108 Y106.924 E26.14077
G1 X126.08 Y107.426 E26.18828
G1 X126.005 Y110.177 E26.44834
G1 X126.007 Y112.894 E26.7051
G1 X126.164 Y117.166 E27.10908
G1 X126.175 Y117.596 E27.14973
G1 X126.175 Y123.309 E27.6896
G1 X126.165 Y124.035 E27.75822
G1 X126.118 Y124.536 E27.80577
G1 X125.992 Y125.024 E27.8534
G1 X125.791 Y125.486 E27.90101
G1 X125.52 Y125.91 E27.94856
G1 X125.185 Y126.285 E27.99608
G1 X124.794 Y126.604 E28.04377
G1 X124.358 Y126.856 E28.09136
G1 X123.888 Y127.036 E28.13892
G1 X123.395 Y127.14 E28.18653
G1 X122.759 Y127.174 E28.24672
G1 X100.666 Y127.175 E30.33451
G1 X99.968 Y127.166 E30.40047
G1 X99.467 Y127.119 E30.44803
G1 X98.979 Y126.994 E30.49563
G1 X98.517 Y126.794 E30.54321
G1 X98.093 Y126.522 E30.59081
G1 X97.716 Y126.188 E30.63841
G1 X97.398 Y125.797 E30.68603
G1 X97.145 Y125.362 E30.73359
G1 X96.964 Y124.892 E30.78118
G1 X96.86 Y124.399 E30.8288
G1 X96.826 Y123.744 E30.89078
G1 X96.825 Y99.631 E33.16946
G1 X96.834 Y98.966 E33.23231
G1 X96.881 Y98.465 E33.27986
G1 X97.006 Y97.977 E33.32746
G1 X97.207 Y97.515 E33.37507
G1 X97.479 Y97.091 E33.42268
G1 X97.814 Y96.715 E33.47027
G10
;MESH:C letter.stl
G0 F4500 X100.539 Y98.304
G0 X100.539 Y99.539
G0 X107.063 Y104.645
;TYPE:WALL-INNER
G11
G1 F2400 X107.063 Y118.141 E34.74564
G1 X122.125 Y118.141 E36.169
G1 X122.125 Y123.125 E36.63999
G1 X100.875 Y123.125 E38.64811
G1 X100.875 Y99.875 E40.84524
G1 X122.125 Y99.875 E42.85336
G1 X122.125 Y104.645 E43.30413
G1 X107.063 Y104.645 E44.72749
G0 F4500 X107.413 Y104.995
G1 F2400 X107.413 Y117.791 E45.93671
G1 X122.475 Y117.791 E47.36007
G1 X122.475 Y123.475 E47.8972
G1 X100.525 Y123.475 E49.97148
G1 X100.525 Y99.525 E52.23475
G1 X122.475 Y99.525 E54.30903
G1 X122.475 Y104.995 E54.82594
G1 X107.413 Y104.995 E56.2493
G0 F4500 X107.738 Y105.32
;TYPE:WALL-OUTER
G1 F2400 X107.738 Y117.466 E57.3971
G1 X122.8 Y117.466 E58.82046
G1 X122.8 Y123.8 E59.41902
G1 X100.2 Y123.8 E61.55472
G1 X100.2 Y99.2 E63.87942
G1 X122.8 Y99.2 E66.01512
G1 X122.8 Y105.32 E66.59346
G1 X107.738 Y105.32 E68.01682
G0 F4500 X107.738 Y105.52
G0 X107.313 Y105.52
G0 X106.723 Y104.305
;TYPE:SKIN
G1 F2400 X106.723 Y118.481 E69.35645
G1 X121.785 Y118.481 E70.77981
G1 X121.785 Y122.785 E71.18654
G1 X101.215 Y122.785 E73.13041
G1 X101.215 Y100.215 E75.26327
G1 X121.785 Y100.215 E77.20714
G1 X121.785 Y104.305 E77.59364
G1 X106.723 Y104.305 E79.017
G0 F4500 X121.627 Y100.838
G1 F2400 X121.16 Y100.371 E79.07941
G0 F4500 X120.665 Y100.371
G1 F2400 X121.627 Y101.333 E79.20798
G0 F4500 X121.627 Y101.828
G1 F2400 X120.17 Y100.371 E79.40269
G0 F4500 X119.675 Y100.371
G1 F2400 X121.627 Y102.323 E79.66357
G0 F4500 X121.627 Y102.818
G1 F2400 X119.18 Y100.371 E79.99059
G0 F4500 X118.685 Y100.371
G1 F2400 X121.627 Y103.313 E80.38377
G0 F4500 X121.627 Y103.808
G1 F2400 X118.19 Y100.371 E80.8431
G0 F4500 X117.695 Y100.371
G1 F2400 X121.471 Y104.147 E81.34774
G0 F4500 X120.976 Y104.147
G1 F2400 X117.2 Y100.371 E81.85237
G0 F4500 X116.705 Y100.371
G1 F2400 X120.481 Y104.147 E82.35701
G0 F4500 X119.986 Y104.147
G1 F2400 X116.21 Y100.371 E82.86165
G0 F4500 X115.715 Y100.371
G1 F2400 X119.491 Y104.147 E83.36628
G0 F4500 X118.996 Y104.147
G1 F2400 X115.22 Y100.371 E83.87092
G0 F4500 X114.725 Y100.371
G1 F2400 X118.501 Y104.147 E84.37556
G0 F4500 X118.006 Y104.147
G1 F2400 X114.23 Y100.371 E84.88019
G0 F4500 X113.736 Y100.371
G1 F2400 X117.511 Y104.147 E85.38476
G0 F4500 X117.016 Y104.147
G1 F2400 X113.241 Y100.371 E85.88933
G0 F4500 X112.746 Y100.371
G1 F2400 X116.522 Y104.147 E86.39397
G0 F4500 X116.027 Y104.147
G1 F2400 X112.251 Y100.371 E86.89861
G0 F4500 X111.756 Y100.371
G1 F2400 X115.532 Y104.147 E87.40324
G0 F4500 X115.037 Y104.147
G1 F2400 X111.261 Y100.371 E87.90788
G0 F4500 X110.766 Y100.371
G1 F2400 X114.542 Y104.147 E88.41252
G0 F4500 X114.047 Y104.147
G1 F2400 X110.271 Y100.371 E88.91715
G0 F4500 X109.776 Y100.371
G1 F2400 X113.552 Y104.147 E89.42179
G0 F4500 X113.057 Y104.147
G1 F2400 X109.281 Y100.371 E89.92643
G0 F4500 X108.786 Y100.371
G1 F2400 X112.562 Y104.147 E90.43106
G0 F4500 X112.067 Y104.147
G1 F2400 X108.291 Y100.371 E90.9357
G0 F4500 X107.796 Y100.371
G1 F2400 X111.572 Y104.147 E91.44034
G0 F4500 X111.077 Y104.147
G1 F2400 X107.301 Y100.371 E91.94497
G0 F4500 X106.806 Y100.371
G1 F2400 X110.582 Y104.147 E92.44961
G0 F4500 X110.087 Y104.147
G1 F2400 X106.311 Y100.371 E92.95425
G0 F4500 X105.816 Y100.371
G1 F2400 X109.592 Y104.147 E93.45888
G0 F4500 X109.097 Y104.147
G1 F2400 X105.321 Y100.371 E93.96352
G0 F4500 X104.826 Y100.371
G1 F2400 X108.602 Y104.147 E94.46816
G0 F4500 X108.107 Y104.147
G1 F2400 X104.331 Y100.371 E94.97279
G0 F4500 X103.836 Y100.371
G1 F2400 X107.612 Y104.147 E95.47743
G0 F4500 X107.117 Y104.147
G1 F2400 X103.341 Y100.371 E95.98207
G0 F4500 X102.846 Y100.371
G1 F2400 X106.622 Y104.147 E96.4867
G0 F4500 X106.565 Y104.586
G1 F2400 X102.351 Y100.371 E97.04994
G0 F4500 X101.856 Y100.371
G1 F2400 X106.565 Y105.081 E97.67933
G0 F4500 X106.565 Y105.575
G1 F2400 X101.371 Y100.381 E98.37348
G0 F4500 X101.371 Y100.876
G1 F2400 X106.565 Y106.07 E99.06762
G0 F4500 X106.565 Y106.565
G1 F2400 X101.371 Y101.371 E99.76176
G0 F4500 X101.371 Y101.866
G1 F2400 X106.565 Y107.06 E100.4559
G0 F4500 X106.565 Y107.555
G1 F2400 X101.371 Y102.361 E101.15005
G0 F4500 X101.371 Y102.856
G1 F2400 X106.565 Y108.05 E101.84419
G0 F4500 X106.565 Y108.545
G1 F2400 X101.371 Y103.351 E102.53833
G0 F4500 X101.371 Y103.846
G1 F2400 X106.565 Y109.04 E103.23248
G0 F4500 X106.565 Y109.535
G1 F2400 X101.371 Y104.341 E103.92662
G0 F4500 X101.371 Y104.836
G1 F2400 X106.565 Y110.03 E104.62076
G0 F4500 X106.565 Y110.525
G1 F2400 X101.371 Y105.331 E105.3149
G0 F4500 X101.371 Y105.826
G1 F2400 X106.565 Y111.02 E106.00905
G0 F4500 X106.565 Y111.515
G1 F2400 X101.371 Y106.321 E106.70319
G0 F4500 X101.371 Y106.816
G1 F2400 X106.565 Y112.01 E107.39733
G0 F4500 X106.565 Y112.505
G1 F2400 X101.371 Y107.311 E108.09147
G0 F4500 X101.371 Y107.806
G1 F2400 X106.565 Y113 E108.78562
G0 F4500 X106.565 Y113.495
G1 F2400 X101.371 Y108.301 E109.47976
G0 F4500 X101.371 Y108.796
G1 F2400 X106.565 Y113.99 E110.1739
G0 F4500 X106.565 Y114.485
G1 F2400 X101.371 Y109.291 E110.86805
G0 F4500 X101.371 Y109.786
G1 F2400 X106.565 Y114.98 E111.56219
G0 F4500 X106.565 Y115.475
G1 F2400 X101.371 Y110.281 E112.25633
G0 F4500 X101.371 Y110.776
G1 F2400 X106.565 Y115.97 E112.95047
G0 F4500 X106.565 Y116.465
G1 F2400 X101.371 Y111.271 E113.64462
G0 F4500 X101.371 Y111.766
G1 F2400 X106.565 Y116.96 E114.33876
G0 F4500 X106.565 Y117.455
G1 F2400 X101.371 Y112.26 E115.03297
G0 F4500 X101.371 Y112.755
G1 F2400 X106.565 Y117.95 E115.72718
G0 F4500 X106.565 Y118.445
G1 F2400 X101.371 Y113.25 E116.42139
G0 F4500 X101.371 Y113.745
G1 F2400 X110.252 Y122.627 E117.60834
G0 F4500 X110.747 Y122.627
G1 F2400 X106.758 Y118.637 E118.14151
G0 F4500 X107.253 Y118.637
G1 F2400 X111.242 Y122.627 E118.67468
G0 F4500 X111.737 Y122.627
G1 F2400 X107.748 Y118.637 E119.20785
G0 F4500 X108.243 Y118.637
G1 F2400 X112.232 Y122.627 E119.74102
G0 F4500 X112.727 Y122.627
G1 F2400 X108.738 Y118.637 E120.27419
G0 F4500 X109.233 Y118.637
G1 F2400 X113.222 Y122.627 E120.80736
G0 F4500 X113.717 Y122.627
G1 F2400 X109.728 Y118.637 E121.34053
G0 F4500 X110.223 Y118.637
G1 F2400 X114.212 Y122.627 E121.87369
G0 F4500 X114.707 Y122.627
G1 F2400 X110.718 Y118.637 E122.40686
G0 F4500 X111.213 Y118.637
G1 F2400 X115.202 Y122.627 E122.94003
G0 F4500 X115.697 Y122.627
G1 F2400 X111.708 Y118.637 E123.4732
G0 F4500 X112.202 Y118.637
G1 F2400 X116.192 Y122.627 E124.00644
G0 F4500 X116.687 Y122.627
G1 F2400 X112.697 Y118.637 E124.53968
G0 F4500 X113.192 Y118.637
G1 F2400 X117.182 Y122.627 E125.07291
G0 F4500 X117.677 Y122.627
G1 F2400 X113.687 Y118.637 E125.60615
G0 F4500 X114.182 Y118.637
G1 F2400 X118.172 Y122.627 E126.13938
G0 F4500 X118.667 Y122.627
G1 F2400 X114.677 Y118.637 E126.67262
G0 F4500 X115.172 Y118.637
G1 F2400 X119.162 Y122.627 E127.20586
G0 F4500 X119.657 Y122.627
G1 F2400 X115.667 Y118.637 E127.73909
G0 F4500 X116.162 Y118.637
G1 F2400 X120.152 Y122.627 E128.27233
G0 F4500 X120.647 Y122.627
G1 F2400 X116.657 Y118.637 E128.80557
G0 F4500 X117.152 Y118.637
G1 F2400 X121.142 Y122.627 E129.3388
G0 F4500 X121.628 Y122.617
G1 F2400 X117.647 Y118.637 E129.87077
G0 F4500 X118.142 Y118.637
G1 F2400 X121.628 Y122.122 E130.33658
G0 F4500 X121.628 Y121.628
G1 F2400 X118.637 Y118.637 E130.73631
G0 F4500 X119.132 Y118.637
G1 F2400 X121.628 Y121.133 E131.06988
G0 F4500 X121.628 Y120.638
G1 F2400 X119.627 Y118.637 E131.3373
G0 F4500 X120.122 Y118.637
G1 F2400 X121.628 Y120.143 E131.53857
G0 F4500 X121.628 Y119.648
G1 F2400 X120.617 Y118.637 E131.67368
G0 F4500 X121.112 Y118.637
G1 F2400 X121.628 Y119.153 E131.74264
G1 X121.69 Y119.215
G0 F4500 X109.757 Y122.627
G1 F2400 X101.371 Y114.24 E132.86344
G0 F4500 X101.371 Y114.735
G1 F2400 X109.262 Y122.627 E133.91809
G0 F4500 X108.767 Y122.627
G1 F2400 X101.371 Y115.23 E134.90658
G0 F4500 X101.371 Y115.725
G1 F2400 X108.272 Y122.627 E135.82892
G0 F4500 X107.777 Y122.627
G1 F2400 X101.371 Y116.22 E136.6851
G0 F4500 X101.371 Y116.715
G1 F2400 X107.282 Y122.627 E137.47513
G0 F4500 X106.787 Y122.627
G1 F2400 X101.371 Y117.21 E138.19901
G0 F4500 X101.371 Y117.705
G1 F2400 X106.292 Y122.627 E138.85674
G0 F4500 X105.798 Y122.627
G1 F2400 X101.371 Y118.2 E139.44837
G0 F4500 X101.371 Y118.695
G1 F2400 X105.303 Y122.627 E139.97386
G0 F4500 X104.808 Y122.627
G1 F2400 X101.371 Y119.19 E140.43319
G0 F4500 X101.371 Y119.685
G1 F2400 X104.313 Y122.627 E140.82637
G0 F4500 X103.818 Y122.627
G1 F2400 X101.371 Y120.18 E141.15339
G0 F4500 X101.371 Y120.675
G1 F2400 X103.323 Y122.627 E141.41427
G0 F4500 X102.828 Y122.627
G1 F2400 X101.371 Y121.17 E141.60898
G0 F4500 X101.371 Y121.665
G1 F2400 X102.333 Y122.627 E141.73755
G0 F4500 X101.838 Y122.627
G1 F2400 X101.371 Y122.16 E141.79996
;MESH:NONMESH
G0 F600 X101.371 Y122.16 Z0.57
G0 F4500 X107.063 Y104.645
;TIME_ELAPSED:45.385697
;LAYER:1
M106 S255
;TYPE:WALL-INNER
;MESH:C letter.stl
G1 F3210 X107.063 Y118.141 E143.21704
G1 X122.125 Y118.141 E144.79855
G1 X122.125 Y123.125 E145.32187
G1 X100.875 Y123.125 E147.55312
G1 X100.875 Y99.875 E149.99437
G1 X122.125 Y99.875 E152.22562
G1 X122.125 Y104.645 E152.72647
G1 X107.063 Y104.645 E154.30798
G0 F6750 X107.413 Y104.995
G1 F3210 X107.413 Y117.791 E155.65156
G1 X122.475 Y117.791 E157.23307
G1 X122.475 Y123.475 E157.82989
G1 X100.525 Y123.475 E160.13464
G1 X100.525 Y99.525 E162.64939
G1 X122.475 Y99.525 E164.95414
G1 X122.475 Y104.995 E165.52849
G1 X107.413 Y104.995 E167.11
G0 F6750 X107.738 Y105.32
;TYPE:WALL-OUTER
G1 F2910 X107.738 Y117.466 E168.38533
G1 X122.8 Y117.466 E169.96684
G1 X122.8 Y123.8 E170.63191
G1 X100.2 Y123.8 E173.00491
G1 X100.2 Y99.2 E175.58791
G1 X122.8 Y99.2 E177.96091
G1 X122.8 Y105.32 E178.60351
G1 X107.738 Y105.32 E180.18502
G0 F6750 X107.738 Y105.52
G0 X107.313 Y105.52
G0 X106.723 Y104.305
;TYPE:SKIN
G1 F2400 X106.723 Y118.481 E181.6735
G1 X121.785 Y118.481 E183.25501
G1 X121.785 Y122.785 E183.70693
G1 X101.215 Y122.785 E185.86678
G1 X101.215 Y100.215 E188.23663
G1 X121.785 Y100.215 E190.39648
G1 X121.785 Y104.305 E190.82593
G1 X106.723 Y104.305 E192.40744
G0 F6750 X101.371 Y100.578
G1 F2400 X101.578 Y100.371 E192.43818
G0 F6750 X102.072 Y100.371
G1 F2400 X101.371 Y101.073 E192.54235
G0 F6750 X101.371 Y101.568
G1 F2400 X102.567 Y100.371 E192.72002
G0 F6750 X103.062 Y100.371
G1 F2400 X101.371 Y102.063 E192.97119
G0 F6750 X101.371 Y102.558
G1 F2400 X103.557 Y100.371 E193.29587
